X:1
T:Title
%%score { ( 1 3 ) | ( 2 4 ) }
L:1/8
Q:1/4=108
M:4/4
K:E
V:1 treble nm="Grand Piano"
V:3 treble 
V:2 bass 
V:4 bass 
V:1
 G2 G2 F2 E2 | [DB]3 [DA] [DF]2 [B,G]F | [G,E]2 [G,E]2 [CEA]2 [EG]F | G2 c2 B2 z2 | G2 G2 F2 E2 | %5
w: J.~M.~Stillman * * *|||||
 [DB]3 [DA] [DF]2 [EG]A | G2 c2 B2 ^A2 |[M:3/4] [DB]4 [DB]2 |[M:1/4] [FA][EG] | %9
w: ||||
[M:4/4] [DF]2 E2 D2 E2 | [DF]4 E2 B2 | c2 B2 A2 G2 |[M:3/4] [EG]4 [DF]2 |[M:1/4] [FA]2 | %14
w: |||||
[M:4/4] [EG]2 [GB]2 [Ge]3 G | F2 A2 c3 [Ec] | Bc .[DB]2 [G,EG]2 [G,E]2 |[M:3/4] [DF]4 z2 |] %18
w: ||||
V:2
 [E,B,E]2 [E,B,E]2 [E,A,B,]2 [E,G,]2 | [B,,F,]3 [B,,B,] [B,,B,]2 z A, | z4 z2 [B,,B,]2 | %3
 B,2 z2 z4 | [E,B,E]2 [E,B,E]2 [E,A,B,]2 [E,G,]2 | [B,,F,]3 [B,,B,] [B,,B,]2 z F | %6
 [E,B,E]2 [E,G,E]2 [F,D]2 [F,C]2 |[M:3/4] [B,,F,]4 [B,,F,]2 |[M:1/4] [B,,B,]2 | %9
[M:4/4] [B,,A,]2 [B,,G,]2 [B,,F,B,]2 [B,,G,B,]2 | [B,,A,]4 [E,G,]2 [E,G,E]2 | %11
 [A,E]2 [G,B,E]2 [F,B,D]2 [E,B,E]2 |[M:3/4] [B,,B,]4 [B,,B,]2 |[M:1/4] [B,,B,]2 | %14
[M:4/4] [E,B,]2 [E,E]2 [E,B,]3 [E,B,E] | [A,CE]2 [A,CE]2 [A,E]3 [A,,A,] | [B,,F,]2 z A E,2 C,2 | %17
[M:3/4] z2 A,2 E,2 |] %18
V:3
 x8 | z4 z2 D2 | x8 | x8 | x8 | x8 | x8 |[M:3/4] x6 |[M:1/4] x2 |[M:4/4] x8 | x8 | x8 |[M:3/4] x6 | %13
[M:1/4] x2 |[M:4/4] x8 | x8 | D2 z2 z4 |[M:3/4] B,2 z2 [G,E]2 |] %18
V:4
 x8 | z4 z2 B,,2 | C,2 C,2 A,,2 z D | [E,E]2- [E,A,E]2 [E,G,E]2 z2 | x8 | z4 z2 [B,,B,]2 | x8 | %7
[M:3/4] x6 |[M:1/4] x2 |[M:4/4] x8 | x8 | x8 |[M:3/4] x6 |[M:1/4] x2 |[M:4/4] x8 | x8 | %16
 z2 [B,,F,]2 z4 |[M:3/4] B,,4 z2 |] %18

